!!!COM:	Martini, Johannes
!!!CDT:	~1440///-~1497//
!!!OTL:	J'ay pris amours II
!!!AGN:	Song; Chanson
!!!SCT:	Mar3042
!!!SCA:	Mar3042
!!!voices:	4
**kern	**kern	**kern	**kern
*staff4	*staff3	*staff2	*staff1
*Ivox	*Ivox	*Ivox	*Ivox
*I"Bassus	*I"Tenor	*I"Tenor	*I"Altus
*I'B	*I'T	*I'T	*I'A
*clefF4	*clefGv2	*clefGv2	*clefG2
*k[b-]	*k[b-]	*k[]	*k[]
*M2/1	*M2/1	*M2/1	*M2/1
*met(C|)	*met(C|)	*met(C|)	*met(C|)
=1-	=1-	=1-	=1-
!!LO:TX:X=-40:Z=12:t=Rondeau
0D	0d	0A	0r
=2	=2	=2	=2
1C	1e	1A	0a
[1D	1f	1A	.
=3	=3	=3	=3
1D]	0d	0B-i	1f
1BB-	.	.	1g
=4	=4	=4	=4
1C	0r	1.A	0a
1D	.	.	.
.	.	2B-i\	.
=5	=5	=5	=5
0GG	1r	0d	1.b-i
.	1B-	.	.
.	.	.	4a/
.	.	.	4g/
=6	=6	=6	=6
0r	1A	1r	1f
.	1G	1B-i	1g
=7	=7	=7	=7
0r	1F	1A	1a
.	2G/	1G	1b-i
.	2B-\	.	.
=8	=8	=8	=8
0r	1A	1F	1cc
.	1B-	2G/	2b-i\
.	.	2B-i\	[2g/
=9	=9	=9	=9
0r	1r	1A	2g/]
.	.	.	2f/
.	1G	1B-i	2g/
.	.	.	2e/
=10	=10	=10	=10
0r	1F	1r	1d
.	1E	1G	1r
=11	=11	=11	=11
0r	2D/	1F	1d
.	1D	.	.
.	.	1E	1g
.	2C#i/	.	.
=12	=12	=12	=12
0r	2D/	2D/	2f/
.	1A	1F	4e/
.	.	.	4d/
.	.	.	2c/
.	2G/	2E/	[2e/
=13	=13	=13	=13
0r	2A/	2F/	2e/]
.	2F/	2A/	1d
.	1E	1G	.
.	.	.	2c#i/
=14	=14	=14	=14
0D	2D/	0A	0d
.	2.F/	.	.
.	4E/	.	.
.	2D/	.	.
=15	=15	=15	=15
1C	1E	1A	0r
1D	1D	1B	.
=16	=16	=16	=16
0E	1r	0c	0g
.	1G	.	.
=17	=17	=17	=17
1.D	2B-\	0d	1.f
.	2.A/	.	.
.	4G/	.	.
[2F\	2F/	.	[2a/
=18	=18	=18	=18
4F\]	1c	1r	4a/]
4E\	.	.	4g/
2C/	.	.	2e/
2D\	2A/	1D	2f/
2C/	[2A/	.	4e/
.	.	.	4d/
=19	=19	=19	=19
1AA	4A/]	1C	1e
.	4G/	.	.
.	4F/	.	.
.	4E/	.	.
2r	1F	1D	2A/
[2BB-/	.	.	[2d/
=20	=20	=20	=20
4BB-/]	0r	0F	4d/]
4AA/	.	.	4c/
2.FF/	.	.	2.A/
4GG/	.	.	4B/
4AA/	.	.	4c/
4BB-/	.	.	4d/
=21	=21	=21	=21
2C/	0r	0E	2e/
2GG/	.	.	2B/
1AA	.	.	1c#i
=22	=22	=22	=22
2r	1.f	[0F	0d
1D	.	.	.
4C/	4e\	.	.
4BB-/	4d\	.	.
=23	=23	=23	=23
2AA/	2c\	1F]	0r
2.BB-/	2.d\	.	.
.	.	1G	.
4GG/	4c\	.	.
[2C/	[2e\	.	.
=24	=24	=24	=24
4C/]	4e\]	0A	0r
4AA/	4d\	.	.
2.D\	2.f\	.	.
4E\	4g\	.	.
2F\	2a\	.	.
=25	=25	=25	=25
2G\	2d\	1B-i	0r
2.D\	2.f\	.	.
.	.	[1F	.
4C/	4e\	.	.
[2BB-/	[2d\	.	.
=26	=26	=26	=26
4BB-/]	4d\]	1F]	0r
4AA/	4c\	.	.
2BB-/	2d\	.	.
2C/	2e\	1E	.
2AA/	2c\	.	.
=27	=27	=27	=27
0BB-	1d	0D	0d
.	1D	.	.
=28	=28	=28	=28
0AA	0E	0A	0c
=29	=29	=29	=29
1BB-	0D	1F	[0d
2GG/	.	1G	.
[2BB-/	.	.	.
=30	=30	=30	=30
4BB-/]	1r	1F	1d]
4C/	.	.	.
1D	.	.	.
.	1G	1E	1e
2C#i/	.	.	.
=31	=31	=31	=31
2.D\	2.F/	1.D	0f
4E\	4G/	.	.
2F\	2.A/	.	.
4E\	.	4E/	.
4D\	4B-\	4F/	.
=32	=32	=32	=32
0C	0c	0G	1e
.	.	.	1r
=33	=33	=33	=33
0r	0r	0d	2f/
.	.	.	4g/
.	.	.	4a/
.	.	.	2b-i\
.	.	.	[2a/
=34	=34	=34	=34
0r	0r	1c	4a/]
.	.	.	4g/
.	.	.	2e/
.	.	1d	2d/
.	.	.	[2f/
=35	=35	=35	=35
0r	0r	1A	4f/]
.	.	.	4e/
.	.	.	2c/
.	.	1B	2r
.	.	.	[2g/
=36	=36	=36	=36
0r	0r	0c	4g/]
.	.	.	4f/
.	.	.	4e/
.	.	.	4d/
.	.	.	1e
=37	=37	=37	=37
1.D	1.f	[0d	2d/
.	.	.	2.a/
.	.	.	4g/
2G\	[2d\	.	[2b-i\
=38	=38	=38	=38
2F\	4d\]	0d]	4b-\]
.	4c\	.	4a/
2G\	2B-\	.	1g
1D	1A	.	.
.	.	.	2f#i/
=39	=39	=39	=39
0GG	2G/	1r	1g
.	2.B-\	.	.
.	.	1B-i	[1d
.	4A/	.	.
.	2G/	.	.
=40	=40	=40	=40
1r	2.F/	1A	2d/]
.	.	.	2c/
.	4E/	.	.
1GG	1G	1G	1B-i
=41	=41	=41	=41
1.D	1r	1.F	1.A
.	1d	.	.
4E\	.	2G/	2G/
4F\	.	.	.
=42	=42	=42	=42
1.G	1.d	1B-i	1G
.	.	1G	1r
4F\	2e\	.	.
4E\	.	.	.
=43	=43	=43	=43
2.D\	2.f\	0A	0r
4E\	4e\	.	.
1F	1c	.	.
=44	=44	=44	=44
2G\	1B-	[0B-i	1.g
2.E-i\	.	.	.
.	1e-	.	.
4F\	.	.	.
[2G\	.	.	[2b-i\
=45	=45	=45	=45
4G\]	1d	0B-]	4b-\]
4F\	.	.	4a/
2D\	.	.	2f/
1E-i	1G	.	1g
=46	=46	=46	=46
1D	1A	1r	1.f
1r	1B-	1d	.
.	.	.	[2b-i\
=47	=47	=47	=47
0r	1F	1c	4b-\]
.	.	.	4a/
.	.	.	1a
.	1G	1B-i	.
.	.	.	2g/
=48	=48	=48	=48
1F	1D	1A	1a
2D\	1r	1d	2f/
[2G\	.	.	2d/
=49	=49	=49	=49
2G\]	0r	1r	2e/
2F\	.	.	1f
2D\	.	1B-i	.
2E\	.	.	4e/
.	.	.	4d/
=50	=50	=50	=50
1F	1r	1A	1c
[1BB-	1F	1B-i	1r
=51	=51	=51	=51
2BB-/]	1.B-	1.F	0r
1D	.	.	.
4C/	4A/	2G/	.
4BB-/	4G/	.	.
=52	=52	=52	=52
1AA	2.F#i/	1A	1c
.	4E/	.	.
2GG/	1G	1B-i	2B-i/
[2BB-/	.	.	[2d/
=53	=53	=53	=53
4BB-/]	1r	1F	4d/]
4C/	.	.	4e/
2D\	.	.	2f/
2E\	1B-	1E	2g/
2G\	.	.	2b-\
=54	=54	=54	=54
2F\	1.c	0A	2a/
4E\	.	.	4g/
4D\	.	.	4f/
2C/	.	.	4e/
.	.	.	4d/
2F\	4B-\	.	2c/
.	4A/	.	.
=55	=55	=55	=55
4G\	2.B-\	0G	2.e/
4F\	.	.	.
4E\	.	.	.
4D\	4A/	.	4f/
1E	2B-\	.	1g
.	2c\	.	.
=56	=56	=56	=56
2D\	2d\	[0Al	2f/
2.F\	4c\	.	2.a/
.	4B-\	.	.
.	4A/	.	.
4E\	4r	.	4g/
4D\	[2A/	.	4f/
4C/	.	.	4e/
=57	=57	=57	=57
1D	4A/]	0A_	2f/
.	4G/	.	.
.	2F/	.	4e/
.	.	.	4d/
1AA	1E	.	2.c#i/
.	.	.	4B/
=58	=58	=58	=58
1r	[0Dl	0A_	[0dl
1D	.	.	.
=59	=59	=59	=59
0Dl	0D]	0A]	0d]
==	==	==	==
*-	*-	*-	*-
!!!RDF**kern: l=long note in original notation
!!!RDF**kern: i=editorial accidental
!!!ENC:	Chris Gage 12-03-2014
!!!END:	2015/03/01/
!!!EED:	Jesse Rodin
!!!EEV:	2015/03/05/
!!!ONB:	Translated from MusicXML and edited on 2015/03/05/ by Craig Sapp
!!muse2ps: C^@{COM}^i2I150v85,85,85,150Q16
